X:1
T:[ID 2-5]
T:[ID 2-5]
T:Bezeichnung standardisiert: Menuett Men\"uet 1. ex G.#.
T:Urheber unbekannt Datum in der hier transkribierten schriftlichen Quelle: 1767
C:Urheber unbekannt
C:Datum in der hier transkribierten schriftlichen Quelle: 1767
L:1/8
M:3/4
K:G
V:1 treble 
V:1
 g2 d2 d2 | db{b} a4 | af d2 d2 | (3dfa b4 | g2 bge^c | d2 fdAF | G2 F2 E2 |{E} D6 :: Bc d4 | %9
 gdbgdB | AB c4 | fc afcA | GB d2 d2 | ecAF G2 | C2 B,2 A,2 |{A,} G,6 :| %16

